X:1
T:Maura Connolly's Reel
C:Sean Ryan
B:Ceol Rince na hEireann Vol. 2 # 239
S:Paddy O'Brien
D:Shamrock "Mo Cheol Thu" POLYDOR 1985
M:C|
Q:88
R:reel
Z:Michel Sikiotakis, 1998, from the playing of Olivier Darras on fiddle,
Z:slightly arranged from the Breathnach's version
K:ADor
B || cBAG (3EFG Ac | B~G3 EGBG | cBAG ~E3F | GEDG E~A,3 |
cBAG (3EFG Ac | B~G3 eGdG | cBAB cdea | gedB (3cBA BG |
A2cA eAcA | G2 Bd gdBG | (3AAA cA a2 ba | gedB cAce |
a2ed (3Bcd ef | gfga gedB | (3ccA GD ~E3F | GEDG E~A,3 ||
"Breathnach's version"
B | cBAG EGAc | BG (3GFG EG A2 | cBAG E3 F | GEDG EA, A,2 |
cBAG EGAc | BG (3GFG DGBd | cBcd egfa | gedB cAA :|
F [| A2 (3cBA aAcA | G2 Bd gdBG | (3AcA ce a2 ba | (3gfe dB cAAg |
(3aba ed cdef | gfga (3gfe dB | cBAG E3 F | GEDG EA, A,2 :|

